media/background-images/instagramm-logo-black.svg

<svg width="36" height="36" viewBox="0 0 36 36" fill="none" xmlns="http://www.w3.org/2000/svg">
<circle cx="18" cy="18" r="17.5" stroke="#181818"/>
<path d="M21.5608 11.9014V11.9H21.4608H15.5115C13.52 11.9 11.9 13.52 11.9 15.5115V21.4609C11.9 23.4523 13.52 25.0722 15.5115 25.0722H21.4609C23.4523 25.0722 25.0722 23.4523 25.0722 21.4609V15.5115C25.0722 13.5534 23.5062 11.9545 21.5608 11.9014ZM24.1118 21.4609C24.1118 22.9225 22.9225 24.1118 21.4608 24.1118H15.5115C14.0498 24.1118 12.8605 22.9225 12.8605 21.4609V15.5115C12.8605 14.0498 14.0498 12.8605 15.5115 12.8605H21.4609C22.9225 12.8605 24.1118 14.0498 24.1118 15.5115V21.4609Z" fill="#181818" stroke="#181818" stroke-width="0.2"/>
<path d="M18.4865 14.8395C16.4754 14.8395 14.8395 16.4754 14.8395 18.4865C14.8395 20.4975 16.4754 22.1335 18.4865 22.1335C20.4975 22.1335 22.1335 20.4975 22.1335 18.4865C22.1335 16.4754 20.4975 14.8395 18.4865 14.8395ZM18.4865 21.173C17.0053 21.173 15.7999 19.9677 15.7999 18.4865C15.7999 17.0053 17.0053 15.7999 18.4865 15.7999C19.9677 15.7999 21.173 17.0053 21.173 18.4865C21.173 19.9677 19.9677 21.173 18.4865 21.173Z" fill="#181818" stroke="#181818" stroke-width="0.2"/>
<path d="M22.1184 13.6797C21.5404 13.6797 21.0703 14.1499 21.0703 14.7278C21.0703 15.3058 21.5404 15.776 22.1184 15.776C22.6964 15.776 23.1666 15.3058 23.1666 14.7278C23.1666 14.1498 22.6964 13.6797 22.1184 13.6797ZM22.1184 15.0154C21.9599 15.0154 21.8308 14.8863 21.8308 14.7278C21.8308 14.5691 21.9599 14.4402 22.1184 14.4402C22.2771 14.4402 22.4061 14.5691 22.4061 14.7278C22.4061 14.8863 22.2771 15.0154 22.1184 15.0154Z" fill="#181818"/>
</svg>

<svg width="36" height="36" fill="none" xmlns="http://www.w3.org/2000/svg"><circle cx="18" cy="18" r="17.5" stroke="#181818"/><path d="M21.56 11.901V11.9h-6.048a3.615 3.615 0 00-3.611 3.611v5.95a3.615 3.615 0 003.611 3.611h5.95a3.615 3.615 0 003.611-3.611v-5.95a3.616 3.616 0 00-3.511-3.61zm2.552 9.56c0 1.462-1.19 2.65-2.651 2.65h-5.95a2.654 2.654 0 01-2.65-2.65v-5.95a2.654 2.654 0 012.65-2.65h5.95a2.653 2.653 0 012.65 2.65v5.95z" fill="#181818" stroke="#181818" stroke-width=".2"/><path d="M18.486 14.84a3.651 3.651 0 00-3.647 3.646 3.651 3.651 0 003.647 3.648 3.651 3.651 0 003.648-3.648 3.651 3.651 0 00-3.648-3.647zm0 6.333a2.69 2.69 0 01-2.686-2.686 2.69 2.69 0 012.686-2.687 2.69 2.69 0 012.687 2.686 2.69 2.69 0 01-2.686 2.687z" fill="#181818" stroke="#181818" stroke-width=".2"/><path d="M22.118 13.68a1.05 1.05 0 000 2.096 1.05 1.05 0 000-2.096zm0 1.335a.288.288 0 11.001-.576.288.288 0 010 .576z" fill="#181818"/></svg>
